!!!OTL: GESTERN ABEND IN DER STILLEN RUH
!!!ARE: Europa, Mitteleuropa, Deutschland, Rheinland; Hessen
!!!SCT: E0522F
!!!YEM: Copyright 1995, estate of Helmut Schaffrath.
**kern
*ICvox
*Ivox
*M4/4
*k[]
*C:
{8G
8G
=1
4c
4G
4c
4G
=2
4c
4e
4G}
{8e
8e
=3
4.d
8B
8d
8c
8B
8A
=4
4G
4G
4G}
{8G
8G
=5
4F
4d
8d
8c
8B
8A
=6
4G
4e
4e}
{8G
8G
=7
4F
4d
8d
8c
8B
8A
=8
4G
4e
4e
4r}
=9
{4G
4G
4A
4B
=10
4c
4e
4G}
{8e
8e
=11
4.d
8B
8d
8c
8B
8A
=12
4G
4G
4G}
==
!!!AGN: Liebes - Lied
!!!ONB: ESAC (Essen Associative Code) Database: ERK1
!!!AMT: simple quadruple
!!!AIN: vox
!!!EED: Helmut Schaffrath
!!!EEV: 1.0
*-
